X: 3030
Q:"Reel."
M: C
L: 1/8
K: Bm
uA2 |:\
d2fd B2dB | ABAG (FD)D2 |\
defg a2(fd) |
gfed cABc |\
defg a2(fd) | egec d2A2 |\
defg a2(fd) | gfed cBAG |\


